src/components/00-materials/images-raw/Productivity/Check List.svg

<svg xmlns="http://www.w3.org/2000/svg" viewBox="0 0 96 96"><g fill="none" stroke="#00008f" stroke-linecap="round" stroke-linejoin="round" stroke-width="2"><path d="M62 20.47V9H22.33A2.31 2.31 0 0 0 20 11.29v73.42A2.31 2.31 0 0 0 22.33 87h51.34A2.32 2.32 0 0 0 76 84.71V22.76H64.33A2.3 2.3 0 0 1 62 20.47zM62 9l14 13.76m-27.84 7.68h17.65"/><path d="M39.16 27.59l-6.15 5.7-2.83-3.63m17.98 11.41h17.65m-26.65-2.86l-6.15 5.71-2.83-3.63m17.98 11.4h17.65m-26.65-2.85l-6.15 5.7-2.83-3.63m17.98 12.53h17.65m-26.65-2.85l-6.15 5.7-2.83-3.63m17.98 12.53h17.65m-26.65-2.85l-6.15 5.7-2.83-3.62"/></g></svg>

<svg xmlns="http://www.w3.org/2000/svg" viewBox="0 0 96 96"><defs><style>.cls-2{fill:none;stroke:#00008f;stroke-linecap:round;stroke-linejoin:round;stroke-width:2px}</style></defs><g id="Layer_2" ><g id="icons"><path class="cls-2" d="M62 20.47V9H22.33A2.31 2.31 0 0 0 20 11.29v73.42A2.31 2.31 0 0 0 22.33 87h51.34A2.32 2.32 0 0 0 76 84.71V22.76H64.33A2.3 2.3 0 0 1 62 20.47zM62 9l14 13.76M48.16 30.44h17.65"/><path class="cls-2" d="M39.16 27.59l-6.15 5.7-2.83-3.63M48.16 41.07h17.65M39.16 38.21l-6.15 5.71-2.83-3.63M48.16 51.69h17.65M39.16 48.84l-6.15 5.7-2.83-3.63M48.16 63.44h17.65M39.16 60.59l-6.15 5.7-2.83-3.63M48.16 75.19h17.65M39.16 72.34l-6.15 5.7-2.83-3.62"/></g></g></svg>
